chrome/icons/open-folder.svg

<svg height="16" viewBox="0 64 1010 896" width="16" xmlns="http://www.w3.org/2000/svg" xmlns:xlink="http://www.w3.org/1999/xlink">
  <path d="M156.5,960C135.5,960 115.5,955.75 96.5,947.25C77.5,938.75 60.9167,927.417 46.75,913.25C32.5833,899.083 21.25,882.5 12.75,863.5C4.25,844.5 0,824.5 0,803.5L0,220.5C0,199.5 4.25,179.5 12.75,160.5C21.25,141.5 32.5833,124.917 46.75,110.75C60.9167,96.5834 77.5,85.2501 96.5,76.75C115.5,68.2501 135.5,64.0001 156.5,64L352,64C375,64.0001 394.75,67.5834 411.25,74.75C427.75,81.9167 442.667,91.5 456,103.5C469.333,115.5 481.667,129.167 493,144.5C504.333,159.833 516,175.667 528,192L802.5,192C823.167,192 843,196.167 862,204.5C881,212.833 897.667,224.083 912,238.25C926.333,252.417 937.833,268.833 946.5,287.5C955.167,306.167 959.667,325.833 960,346.5C975.667,358.833 987.833,373.833 996.5,391.5C1005.17,409.167 1009.5,428 1009.5,448C1009.5,451 1009.5,453.917 1009.5,456.75C1009.5,459.583 1009.17,462.5 1008.5,465.5L959,822C956.333,841 950.333,858.917 941,875.75C931.667,892.583 920,907.25 906,919.75C892,932.25 876.167,942.083 858.5,949.25C840.833,956.417 822.333,960 803,960ZM890.5,320.5C887.167,310.833 882.5,302.083 876.5,294.25C870.5,286.417 863.5,279.667 855.5,274C847.5,268.333 838.833,263.917 829.5,260.75C820.167,257.583 810.333,256 800,256L496,256L429,166.5C420,154.5 408.667,145.083 395,138.25C381.333,131.417 367,128 352,128L160,128C147,128 134.667,130.5 123,135.5C111.333,140.5 101.083,147.417 92.25,156.25C83.4167,165.083 76.5,175.333 71.5,187C66.5,198.667 64,211 64,224L64,800C64,802 64.0833,803.917 64.25,805.75C64.4167,807.583 64.5,809.5 64.5,811.5L145,422C148,407.333 153.417,393.75 161.25,381.25C169.083,368.75 178.583,358 189.75,349C200.917,340 213.417,332.917 227.25,327.75C241.083,322.583 255.5,320 270.5,320L882,320C883.667,320 885.083,320 886.25,320C887.417,320 888.833,320.167 890.5,320.5ZM800.5,896C812.5,896 823.917,893.917 834.75,889.75C845.583,885.583 855.25,879.75 863.75,872.25C872.25,864.75 879.25,856 884.75,846C890.25,836 893.833,825 895.5,813L945,457C945.333,455.333 945.5,453.833 945.5,452.5C945.5,451.167 945.5,449.667 945.5,448C945.5,439.333 943.833,431.083 940.5,423.25C937.167,415.417 932.667,408.583 927,402.75C921.333,396.917 914.667,392.333 907,389C899.333,385.667 891,384 882,384L270.5,384C262.833,384 255.583,385.25 248.75,387.75C241.917,390.25 235.667,393.75 230,398.25C224.333,402.75 219.5,408.167 215.5,414.5C211.5,420.833 208.833,427.667 207.5,435L115,884.5C129.333,892.167 144.333,896 160,896Z" fill="context-fill" fill-opacity="context-fill-opacity">
  </path>
</svg>

<svg xmlns="http://www.w3.org/2000/svg" width="16" height="16" viewBox="0 64 1010 896"><path fill="context-fill" fill-opacity="context-fill-opacity" d="M156.5 960q-31.5 0-60-12.75t-49.75-34-34-49.75T0 803.5v-583q0-31.5 12.75-60t34-49.75 49.75-34 60-12.75H352q34.5 0 59.25 10.75T456 103.5t37 41 35 47.5h274.5q31 0 59.5 12.5t50 33.75 34.5 49.25 13.5 59q23.5 18.5 36.5 45c8.67 17.667 13 36.5 13 56.5v8.75c0 2.833-.33 5.75-1 8.75L959 822q-4 28.5-18 53.75t-35 44-47.5 29.5T803 960Zm734-639.5q-5-14.5-14-26.25t-21-20.25a100.7 100.7 0 0 0-26-13.25Q815.5 256 800 256H496l-67-89.5q-13.5-18-34-28.25T352 128H160q-19.5 0-37 7.5t-30.75 20.75T71.5 187 64 224v576q0 3 .25 5.75t.25 5.75L145 422q4.5-22 16.25-40.75t28.5-32.25 37.5-21.25T270.5 320h615.75q1.75 0 4.25.5m-90 575.5q18 0 34.25-6.25t29-17.5 21-26.25 10.75-33L945 457q.5-2.5.5-4.5V448q0-13-5-24.75t-13.5-20.5T907 389t-25-5H270.5q-11.5 0-21.75 3.75T230 398.25t-14.5 16.25-8 20.5L115 884.5q21.5 11.5 45 11.5Z"/></svg>
